X:86
T:Sarah's Fiddle
S:Fiddle Sticks
Z:Robin Beech robin.beech@mcgill.ca
R:reel
M:4/4
K:A
F |: EA AE Ac BA |B2 cB AB cd |eA ce f2 ac |
B2 cB AF F2 |EA AE Ac BA |B2 cB AB cd |
eA ce f2 ac |1B2 cB A3 F :|2B2 cB A3 g |:
aA A/A/A A2 ag |fg fe f2 af |ef ec AB cA |
B2 cB AF F2 |1 aA A/A/A A2 ce |fg fe f2 ec |
B2 ce f2 ac |B2 cB A4 :|2 EA AE Ac BA |
B2 cB AB cd |eA ce f2 ac |B2 cB A3 F |]
